X:10
T: Playoff Hornpipe
C: BB
R: hornpipe
Q: 1/8=310
M: C|
L: 1/8
K: D
D2|"D"FAdc "Em"BAGE|"F#m"AFAc "Bm"d2 (3ABc|"D"dAFA "G"BGBd|\
"A7"ceag "A"(3efg (3cde|
"Bm"dBcA "G"GEDE|"F#m"FAce "Bm"d2 (3ABc|"D"dAFA "G"GBdg|"A"(3efg ac "D"d2 :|
ef|"G"gfed "A"cdec|"Bm"dB (3BAB "A7"AGFE|"D"DFAd "Bm"faba|"G"gBcd "A"e2 ef|
"G"gfed "A"cdec|"D"dA (3ABA "A7"GFEC|"D"DFAd "Em"BGEG|"A"(3FGA EC "D"D2 :|
